;FLAVOR:Marlin
;TIME:4932
;Filament used: 5.0845m
;Layer height: 0.2
;MINX:-50.798
;MINY:-50.832
;MINZ:0.3
;MAXX:50.804
;MAXY:50.832
;MAXZ:11.7
;Generated with Cura_SteamEngine 4.2.1
M140 S60
M105
M190 S60
M104 S200
M105
M109 S200
M82 ;absolute extrusion mode
G21        ;metric values
G90        ;absolute positioning
M107       ;start with the fan off
G28   ;move to endstops
G92 E0                  ;zero the extruded length
G1 F200 E3              ;extrude 3mm of feed stock
G92 E0                  ;zero the extruded length again
G1 F120
;Put printing message on LCD screen
M117 Printing...
M141 S28
G92 E0
G92 E0
G1 F1500 E-6.5
;LAYER_COUNT:58
;LAYER:0
M107
G0 F3600 X-50.473 Y0.008 Z0.3
;TYPE:SKIRT
G1 F1500 E0
G1 F1800 X-50.558 Y-.262 E0.01412
G1 X-50.717 Y-1.036 E0.05354
G1 X-50.798 Y-1.821 E0.09292
G1 X-50.789 Y-2.761 E0.13981
G1 X-50.717 Y-3.803 E0.19192
G1 X-50.704 Y-3.973 E0.20043
G1 X-50.583 Y-5.301 E0.26696
G1 X-50.557 Y-5.542 E0.27905
G1 X-50.395 Y-6.864 E0.3455
G1 X-50.362 Y-7.104 E0.35759
G1 X-50.159 Y-8.42 E0.42402
G1 X-50.117 Y-8.664 E0.43637
G1 X-49.872 Y-9.975 E0.50291
G1 X-49.826 Y-10.204 E0.51456
G1 X-49.542 Y-11.506 E0.58105
G1 X-49.485 Y-11.748 E0.59345
G1 X-49.16 Y-13.039 E0.65987
G1 X-49.097 Y-13.272 E0.67191
G1 X-48.732 Y-14.553 E0.73836
G1 X-48.665 Y-14.779 E0.75012
G1 X-48.261 Y-16.05 E0.81666
G1 X-48.184 Y-16.28 E0.82876
G1 X-47.741 Y-17.537 E0.89525
G1 X-47.656 Y-17.766 E0.90744
G1 X-47.174 Y-19.008 E0.97391
G1 X-47.08 Y-19.237 E0.98626
G1 X-46.558 Y-20.465 E1.05283
G1 X-46.467 Y-20.673 E1.06415
G1 X-45.911 Y-21.882 E1.13054
G1 X-45.801 Y-22.111 E1.14322
G1 X-45.205 Y-23.303 E1.20971
G1 X-45.097 Y-23.51 E1.22135
G1 X-44.466 Y-24.683 E1.28781
G1 X-44.345 Y-24.901 E1.30024
G1 X-43.677 Y-26.053 E1.36668
G1 X-43.557 Y-26.252 E1.37828
G1 X-42.854 Y-27.385 E1.4448
G1 X-42.72 Y-27.593 E1.45714
G1 X-41.983 Y-28.701 E1.52353
G1 X-41.848 Y-28.899 E1.53549
G1 X-41.075 Y-29.987 E1.60207
G1 X-40.928 Y-30.186 E1.61442
G1 X-40.123 Y-31.246 E1.68082
G1 X-39.98 Y-31.429 E1.69241
G1 X-39.142 Y-32.467 E1.75896
G1 X-38.98 Y-32.661 E1.77157
G1 X-38.11 Y-33.67 E1.83804
G1 X-37.962 Y-33.837 E1.84917
G1 X-37.063 Y-34.821 E1.91567
G1 X-36.886 Y-35.008 E1.92852
G1 X-35.956 Y-35.961 E1.99495
G1 X-35.789 Y-36.127 E2.0067
G1 X-34.83 Y-37.052 E2.07317
G1 X-34.652 Y-37.219 E2.08535
G1 X-33.664 Y-38.114 E2.15186
G1 X-33.48 Y-38.275 E2.16405
G1 X-32.465 Y-39.138 E2.23052
G1 X-32.282 Y-39.289 E2.24236
G1 X-31.241 Y-40.121 E2.30884
G1 X-31.056 Y-40.264 E2.32051
G1 X-29.991 Y-41.064 E2.38696
G1 X-29.787 Y-41.213 E2.39957
G1 X-28.697 Y-41.978 E2.466
G1 X-28.497 Y-42.113 E2.47804
G1 X-27.382 Y-42.845 E2.54459
G1 X-27.178 Y-42.975 E2.55665
G1 X-26.041 Y-43.672 E2.62319
G1 X-25.843 Y-43.789 E2.63466
G1 X-24.688 Y-44.451 E2.70108
G1 X-24.467 Y-44.573 E2.71368
G1 X-23.29 Y-45.198 E2.78016
G1 X-23.078 Y-45.306 E2.79203
G1 X-21.882 Y-45.895 E2.85854
G1 X-21.66 Y-46.001 E2.87082
G1 X-20.446 Y-46.552 E2.93733
G1 X-20.229 Y-46.646 E2.94913
G1 X-19.001 Y-47.159 E3.01552
G1 X-18.78 Y-47.248 E3.02741
G1 X-17.535 Y-47.724 E3.09391
G1 X-17.301 Y-47.809 E3.10633
G1 X-16.042 Y-48.245 E3.1728
G1 X-15.812 Y-48.32 E3.18487
G1 X-14.539 Y-48.717 E3.2514
G1 X-14.313 Y-48.784 E3.26316
G1 X-13.03 Y-49.142 E3.32961
G1 X-12.793 Y-49.204 E3.34183
G1 X-11.501 Y-49.521 E3.4082
G1 X-11.262 Y-49.576 E3.42044
G1 X-9.957 Y-49.853 E3.487
G1 X-9.725 Y-49.899 E3.4988
G1 X-8.414 Y-50.136 E3.56526
G1 X-8.173 Y-50.175 E3.57744
G1 X-6.855 Y-50.371 E3.64392
G1 X-6.621 Y-50.402 E3.6557
G1 X-5.297 Y-50.558 E3.72221
G1 X-5.052 Y-50.583 E3.7345
G1 X-3.725 Y-50.697 E3.80094
G1 X-3.49 Y-50.714 E3.8127
G1 X-2.158 Y-50.788 E3.87926
G1 X-1.912 Y-50.798 E3.89154
G1 X-.581 Y-50.83 E3.95796
G1 X-.336 Y-50.832 E3.97018
G1 X0.998 Y-50.822 E4.03674
G1 X1.233 Y-50.817 E4.04847
G1 X2.564 Y-50.767 E4.11492
G1 X2.809 Y-50.753 E4.12716
G1 X4.139 Y-50.661 E4.19367
G1 X4.386 Y-50.64 E4.20604
G1 X5.711 Y-50.506 E4.27248
G1 X5.938 Y-50.48 E4.28388
G1 X7.26 Y-50.307 E4.3504
G1 X7.508 Y-50.271 E4.3629
G1 X8.822 Y-50.056 E4.42933
G1 X9.053 Y-50.014 E4.44104
G1 X10.362 Y-49.759 E4.50758
G1 X10.604 Y-49.708 E4.51991
G1 X11.903 Y-49.412 E4.58638
G1 X12.132 Y-49.356 E4.59814
G1 X13.421 Y-49.021 E4.66459
G1 X13.659 Y-48.955 E4.67691
G1 X14.938 Y-48.579 E4.74342
G1 X15.168 Y-48.508 E4.75543
G1 X16.434 Y-48.093 E4.8219
G1 X16.661 Y-48.014 E4.83389
G1 X17.914 Y-47.56 E4.90038
G1 X18.138 Y-47.476 E4.91231
G1 X19.376 Y-46.984 E4.97878
G1 X19.606 Y-46.888 E4.99121
G1 X20.827 Y-46.357 E5.05764
G1 X21.037 Y-46.262 E5.06914
G1 X22.244 Y-45.694 E5.13569
G1 X22.472 Y-45.582 E5.14836
G1 X23.658 Y-44.976 E5.21481
G1 X23.862 Y-44.868 E5.22632
G1 X25.03 Y-44.227 E5.2928
G1 X25.248 Y-44.103 E5.30531
G1 X26.396 Y-43.424 E5.37185
G1 X26.589 Y-43.305 E5.38316
G1 X27.715 Y-42.594 E5.4496
G1 X27.928 Y-42.455 E5.46229
G1 X29.03 Y-41.708 E5.52871
G1 X29.225 Y-41.572 E5.54057
G1 X30.306 Y-40.79 E5.60713
G1 X30.501 Y-40.644 E5.61929
G1 X31.554 Y-39.831 E5.68566
G1 X31.741 Y-39.682 E5.69759
G1 X32.771 Y-38.835 E5.76412
G1 X32.957 Y-38.676 E5.77632
G1 X33.959 Y-37.798 E5.84279
G1 X34.135 Y-37.64 E5.85459
G1 X35.111 Y-36.731 E5.92113
G1 X35.287 Y-36.562 E5.9333
G1 X36.232 Y-35.625 E5.9997
G1 X36.4 Y-35.453 E6.01169
G1 X37.318 Y-34.485 E6.07825
G1 X37.486 Y-34.302 E6.09064
G1 X38.372 Y-33.306 E6.15715
G1 X38.524 Y-33.13 E6.16875
G1 X39.379 Y-32.109 E6.23519
G1 X39.531 Y-31.921 E6.24725
G1 X40.354 Y-30.874 E6.31369
G1 X40.505 Y-30.676 E6.32612
G1 X41.295 Y-29.602 E6.39263
G1 X41.433 Y-29.409 E6.40447
G1 X42.189 Y-28.313 E6.4709
G1 X42.321 Y-28.114 E6.48281
G1 X43.044 Y-26.994 E6.54932
G1 X43.176 Y-26.782 E6.56178
G1 X43.863 Y-25.639 E6.62831
G1 X43.979 Y-25.44 E6.6398
G1 X44.631 Y-24.279 E6.70623
G1 X44.749 Y-24.06 E6.71864
G1 X45.364 Y-22.878 E6.78512
G1 X45.47 Y-22.668 E6.79685
G1 X46.049 Y-21.468 E6.86333
G1 X46.155 Y-21.239 E6.87592
G1 X46.695 Y-20.021 E6.94239
G1 X46.785 Y-19.809 E6.95388
G1 X47.289 Y-18.575 E7.02038
G1 X47.38 Y-18.34 E7.03295
G1 X47.844 Y-17.09 E7.09947
G1 X47.922 Y-16.871 E7.11107
G1 X48.348 Y-15.609 E7.17752
G1 X48.421 Y-15.381 E7.18947
G1 X48.808 Y-14.107 E7.25589
G1 X48.878 Y-13.864 E7.26851
G1 X49.224 Y-12.576 E7.33505
G1 X49.282 Y-12.346 E7.34688
G1 X49.588 Y-11.051 E7.41327
G1 X49.639 Y-10.819 E7.42512
G1 X49.906 Y-9.513 E7.49162
G1 X49.951 Y-9.273 E7.50381
G1 X50.177 Y-7.959 E7.57032
G1 X50.214 Y-7.72 E7.58239
G1 X50.399 Y-6.401 E7.64884
G1 X50.429 Y-6.161 E7.66091
G1 X50.573 Y-4.836 E7.7274
G1 X50.596 Y-4.596 E7.73943
G1 X50.699 Y-3.267 E7.80593
G1 X50.714 Y-3.027 E7.81793
G1 X50.776 Y-1.697 E7.88435
G1 X50.783 Y-1.457 E7.89633
G1 X50.804 Y-.123 E7.96289
G1 X50.804 Y0.123 E7.97517
G1 X50.783 Y1.455 E8.04163
G1 X50.776 Y1.695 E8.05361
G1 X50.714 Y3.027 E8.12013
G1 X50.699 Y3.267 E8.13213
G1 X50.596 Y4.596 E8.19863
G1 X50.573 Y4.836 E8.21066
G1 X50.429 Y6.161 E8.27716
G1 X50.399 Y6.401 E8.28922
G1 X50.214 Y7.72 E8.35567
G1 X50.177 Y7.959 E8.36774
G1 X49.951 Y9.273 E8.43426
G1 X49.906 Y9.513 E8.44644
G1 X49.639 Y10.819 E8.51294
G1 X49.588 Y11.051 E8.52479
G1 X49.282 Y12.346 E8.59118
G1 X49.223 Y12.579 E8.60317
G1 X48.877 Y13.865 E8.66961
G1 X48.809 Y14.102 E8.68191
G1 X48.422 Y15.378 E8.74844
G1 X48.348 Y15.609 E8.76054
G1 X47.922 Y16.871 E8.82699
G1 X47.844 Y17.09 E8.83859
G1 X47.38 Y18.34 E8.90511
G1 X47.292 Y18.568 E8.9173
G1 X46.789 Y19.803 E8.98383
G1 X46.692 Y20.029 E8.9961
G1 X46.151 Y21.246 E9.06255
G1 X46.049 Y21.468 E9.07473
G1 X45.47 Y22.668 E9.14121
G1 X45.364 Y22.878 E9.15294
G1 X44.749 Y24.06 E9.21942
G1 X44.632 Y24.277 E9.23172
G1 X43.98 Y25.439 E9.29819
G1 X43.862 Y25.643 E9.30995
G1 X43.175 Y26.785 E9.37644
G1 X43.05 Y26.986 E9.38825
G1 X42.329 Y28.106 E9.4547
G1 X42.185 Y28.321 E9.46761
G1 X41.427 Y29.417 E9.5341
G1 X41.295 Y29.602 E9.54543
G1 X40.505 Y30.676 E9.61195
G1 X40.354 Y30.874 E9.62437
G1 X39.531 Y31.921 E9.69081
G1 X39.382 Y32.106 E9.70267
G1 X38.527 Y33.128 E9.76914
G1 X38.369 Y33.31 E9.78117
G1 X37.483 Y34.305 E9.84764
G1 X37.324 Y34.479 E9.8594
G1 X36.408 Y35.447 E9.92588
G1 X36.228 Y35.631 E9.93873
G1 X35.281 Y36.568 E10.00519
G1 X35.117 Y36.725 E10.01652
G1 X34.143 Y37.634 E10.08298
G1 X33.956 Y37.804 E10.09559
G1 X32.952 Y38.682 E10.16213
G1 X32.77 Y38.836 E10.17403
G1 X31.742 Y39.681 E10.24042
G1 X31.557 Y39.828 E10.25221
G1 X30.502 Y40.643 E10.31872
G1 X30.304 Y40.791 E10.33105
G1 X29.225 Y41.571 E10.39747
G1 X29.034 Y41.705 E10.40911
G1 X27.93 Y42.454 E10.47567
G1 X27.72 Y42.592 E10.48821
G1 X26.594 Y43.304 E10.55467
G1 X26.392 Y43.427 E10.56647
G1 X25.244 Y44.105 E10.63299
G1 X25.035 Y44.224 E10.64499
G1 X23.869 Y44.865 E10.71137
G1 X23.655 Y44.978 E10.72345
G1 X22.467 Y45.584 E10.78998
G1 X22.246 Y45.693 E10.80227
G1 X21.04 Y46.261 E10.86878
G1 X20.826 Y46.358 E10.8805
G1 X19.604 Y46.889 E10.94698
G1 X19.381 Y46.982 E10.95903
G1 X18.143 Y47.475 E11.02551
G1 X17.909 Y47.563 E11.03798
G1 X16.656 Y48.016 E11.10446
G1 X16.432 Y48.093 E11.11627
G1 X15.165 Y48.508 E11.18279
G1 X14.939 Y48.579 E11.19461
G1 X13.661 Y48.955 E11.26107
G1 X13.42 Y49.022 E11.27355
G1 X12.13 Y49.357 E11.34004
G1 X11.909 Y49.41 E11.35138
G1 X10.611 Y49.707 E11.41781
G1 X10.365 Y49.76 E11.43037
G1 X9.058 Y50.015 E11.4968
G1 X8.816 Y50.058 E11.50906
G1 X7.5 Y50.272 E11.57558
G1 X7.261 Y50.307 E11.58763
G1 X5.94 Y50.48 E11.6541
G1 X5.711 Y50.506 E11.6656
G1 X4.385 Y50.64 E11.73209
G1 X4.139 Y50.661 E11.74441
G1 X2.808 Y50.753 E11.81097
G1 X2.563 Y50.766 E11.82321
G1 X1.233 Y50.816 E11.88961
G1 X0.998 Y50.822 E11.90134
G1 X-.336 Y50.832 E11.9679
G1 X-.581 Y50.83 E11.98012
G1 X-1.913 Y50.798 E12.04659
G1 X-2.159 Y50.788 E12.05887
G1 X-3.489 Y50.714 E12.12533
G1 X-3.723 Y50.697 E12.13704
G1 X-5.052 Y50.583 E12.20358
G1 X-5.299 Y50.558 E12.21597
G1 X-6.621 Y50.402 E12.28238
G1 X-6.853 Y50.371 E12.29406
G1 X-8.172 Y50.175 E12.36059
G1 X-8.414 Y50.136 E12.37282
G1 X-9.725 Y49.899 E12.43928
G1 X-9.958 Y49.853 E12.45113
G1 X-11.262 Y49.576 E12.51764
G1 X-11.502 Y49.521 E12.52992
G1 X-12.796 Y49.203 E12.5964
G1 X-13.026 Y49.143 E12.60826
G1 X-14.309 Y48.786 E12.6747
G1 X-14.538 Y48.718 E12.68662
G1 X-15.809 Y48.322 E12.75304
G1 X-16.05 Y48.243 E12.76569
G1 X-17.31 Y47.805 E12.83224
G1 X-17.529 Y47.725 E12.84387
G1 X-18.774 Y47.25 E12.91035
G1 X-18.999 Y47.16 E12.92244
G1 X-20.228 Y46.647 E12.98889
G1 X-20.451 Y46.55 E13.00102
G1 X-21.663 Y45.999 E13.06744
G1 X-21.879 Y45.897 E13.07936
G1 X-23.076 Y45.308 E13.14592
G1 X-23.29 Y45.198 E13.15792
G1 X-24.467 Y44.573 E13.22441
G1 X-24.685 Y44.453 E13.23682
G1 X-25.841 Y43.791 E13.30328
G1 X-26.047 Y43.669 E13.31523
G1 X-27.182 Y42.972 E13.38168
G1 X-27.377 Y42.848 E13.39321
G1 X-28.492 Y42.117 E13.45972
G1 X-28.698 Y41.977 E13.47215
G1 X-29.79 Y41.21 E13.53872
G1 X-29.991 Y41.064 E13.55112
G1 X-31.055 Y40.265 E13.6175
G1 X-31.241 Y40.121 E13.62924
G1 X-32.282 Y39.289 E13.69572
G1 X-32.465 Y39.138 E13.70756
G1 X-33.48 Y38.275 E13.77403
G1 X-33.664 Y38.114 E13.78623
G1 X-34.652 Y37.219 E13.85273
G1 X-34.83 Y37.052 E13.86491
G1 X-35.789 Y36.127 E13.93139
G1 X-35.959 Y35.958 E13.94334
G1 X-36.889 Y35.004 E14.00981
G1 X-37.057 Y34.826 E14.02202
G1 X-37.957 Y33.843 E14.08852
G1 X-38.117 Y33.663 E14.10053
G1 X-38.986 Y32.653 E14.16701
G1 X-39.137 Y32.471 E14.1788
G1 X-39.975 Y31.435 E14.24528
G1 X-40.127 Y31.242 E14.25754
G1 X-40.932 Y30.18 E14.32402
G1 X-41.073 Y29.987 E14.33595
G1 X-41.845 Y28.901 E14.40242
G1 X-41.981 Y28.705 E14.41432
G1 X-42.72 Y27.595 E14.48085
G1 X-42.854 Y27.385 E14.49328
G1 X-43.556 Y26.254 E14.55969
G1 X-43.68 Y26.049 E14.57165
G1 X-44.348 Y24.895 E14.63817
G1 X-44.465 Y24.685 E14.65016
G1 X-45.096 Y23.513 E14.71657
G1 X-45.205 Y23.303 E14.72837
G1 X-45.801 Y22.111 E14.79486
G1 X-45.909 Y21.885 E14.80736
G1 X-46.466 Y20.675 E14.87381
G1 X-46.562 Y20.459 E14.88561
G1 X-47.082 Y19.233 E14.95205
G1 X-47.171 Y19.012 E14.96393
G1 X-47.654 Y17.769 E15.03046
G1 X-47.741 Y17.537 E15.04283
G1 X-48.184 Y16.28 E15.10932
G1 X-48.26 Y16.052 E15.12131
G1 X-48.664 Y14.782 E15.1878
G1 X-48.733 Y14.551 E15.19983
G1 X-49.098 Y13.268 E15.26637
G1 X-49.16 Y13.04 E15.27816
G1 X-49.485 Y11.75 E15.34453
G1 X-49.541 Y11.512 E15.35673
G1 X-49.826 Y10.21 E15.42323
G1 X-49.874 Y9.97 E15.43544
G1 X-50.118 Y8.66 E15.50192
G1 X-50.159 Y8.419 E15.51411
G1 X-50.362 Y7.101 E15.58064
G1 X-50.395 Y6.863 E15.59263
G1 X-50.557 Y5.542 E15.65903
G1 X-50.582 Y5.307 E15.67082
G1 X-50.704 Y3.98 E15.7373
G1 X-50.718 Y3.807 E15.74596
G1 X-50.771 Y3.044 E15.78412
G1 X-50.784 Y2.809 E15.79586
G1 X-50.795 Y2.529 E15.80984
G1 X-50.786 Y1.74 E15.84921
G1 X-50.697 Y0.955 E15.88862
G1 X-50.53 Y0.183 E15.92803
G1 X-50.473 Y0.008 E15.93721
G0 F3600 X-50.128 Y0.23
G1 F1800 X-50.056 Y0.016 E15.94848
G1 X-50.231 Y-.616 E15.98119
G1 X-50.359 Y-1.374 E16.01955
G1 X-50.408 Y-2.142 E16.05794
G1 X-50.39 Y-2.733 E16.08744
G1 X-50.318 Y-3.775 E16.13955
G1 X-50.305 Y-3.936 E16.14761
G1 X-50.184 Y-5.264 E16.21413
G1 X-50.16 Y-5.493 E16.22562
G1 X-49.998 Y-6.815 E16.29207
G1 X-49.967 Y-7.043 E16.30355
G1 X-49.764 Y-8.359 E16.36998
G1 X-49.724 Y-8.59 E16.38168
G1 X-49.479 Y-9.901 E16.44822
G1 X-49.435 Y-10.119 E16.45931
G1 X-49.151 Y-11.421 E16.5258
G1 X-49.097 Y-11.651 E16.53758
G1 X-48.772 Y-12.942 E16.604
G1 X-48.713 Y-13.163 E16.61541
G1 X-48.348 Y-14.444 E16.68187
G1 X-48.283 Y-14.658 E16.69302
G1 X-47.879 Y-15.929 E16.75956
G1 X-47.806 Y-16.147 E16.77103
G1 X-47.363 Y-17.404 E16.83752
G1 X-47.283 Y-17.621 E16.84906
G1 X-46.801 Y-18.863 E16.91553
G1 X-46.712 Y-19.081 E16.92727
G1 X-46.19 Y-20.309 E16.99385
G1 X-46.103 Y-20.506 E17.00459
G1 X-45.547 Y-21.715 E17.07098
G1 X-45.443 Y-21.932 E17.08298
G1 X-44.847 Y-23.124 E17.14947
G1 X-44.745 Y-23.321 E17.16054
G1 X-44.114 Y-24.494 E17.22699
G1 X-43.999 Y-24.7 E17.23876
G1 X-43.331 Y-25.852 E17.3052
G1 X-43.217 Y-26.042 E17.31625
G1 X-42.514 Y-27.175 E17.38278
G1 X-42.387 Y-27.371 E17.39443
G1 X-41.65 Y-28.479 E17.46082
G1 X-41.521 Y-28.667 E17.47219
G1 X-40.748 Y-29.755 E17.53878
G1 X-40.609 Y-29.945 E17.55052
G1 X-39.804 Y-31.005 E17.61693
G1 X-39.669 Y-31.177 E17.62784
G1 X-38.831 Y-32.215 E17.69439
G1 X-38.677 Y-32.399 E17.70636
G1 X-37.807 Y-33.408 E17.77283
G1 X-37.666 Y-33.567 E17.78343
G1 X-36.767 Y-34.551 E17.84993
G1 X-36.6 Y-34.728 E17.86207
G1 X-35.67 Y-35.681 E17.9285
G1 X-35.511 Y-35.839 E17.93969
G1 X-34.552 Y-36.764 E18.00616
G1 X-34.383 Y-36.922 E18.0177
G1 X-33.395 Y-37.817 E18.08421
G1 X-33.22 Y-37.971 E18.09584
G1 X-32.205 Y-38.834 E18.16231
G1 X-32.032 Y-38.977 E18.17351
G1 X-30.991 Y-39.809 E18.23999
G1 X-30.815 Y-39.945 E18.25109
G1 X-29.75 Y-40.745 E18.31754
G1 X-29.557 Y-40.885 E18.32944
G1 X-28.467 Y-41.65 E18.39588
G1 X-28.277 Y-41.779 E18.40733
G1 X-27.162 Y-42.511 E18.47388
G1 X-26.968 Y-42.634 E18.48534
G1 X-25.831 Y-43.331 E18.55187
G1 X-25.644 Y-43.442 E18.56272
G1 X-24.489 Y-44.104 E18.62914
G1 X-24.28 Y-44.22 E18.64106
G1 X-23.103 Y-44.845 E18.70755
G1 X-22.901 Y-44.948 E18.71886
G1 X-21.705 Y-45.537 E18.78538
G1 X-21.494 Y-45.636 E18.797
G1 X-20.28 Y-46.187 E18.86352
G1 X-20.074 Y-46.277 E18.87473
G1 X-18.846 Y-46.79 E18.94113
G1 X-18.637 Y-46.874 E18.95237
G1 X-17.392 Y-47.35 E19.01886
G1 X-17.171 Y-47.431 E19.03061
G1 X-15.912 Y-47.867 E19.09708
G1 X-15.693 Y-47.938 E19.10856
G1 X-14.42 Y-48.335 E19.17509
G1 X-14.206 Y-48.399 E19.18624
G1 X-12.923 Y-48.757 E19.25269
G1 X-12.697 Y-48.816 E19.26434
G1 X-11.405 Y-49.133 E19.33071
G1 X-11.178 Y-49.185 E19.34233
G1 X-9.873 Y-49.462 E19.40889
G1 X-9.653 Y-49.505 E19.42007
G1 X-8.342 Y-49.742 E19.48654
G1 X-8.114 Y-49.78 E19.49807
G1 X-6.796 Y-49.976 E19.56455
G1 X-6.574 Y-50.005 E19.57572
G1 X-5.25 Y-50.161 E19.64223
G1 X-5.017 Y-50.185 E19.65392
G1 X-3.69 Y-50.299 E19.72036
G1 X-3.467 Y-50.315 E19.73152
G1 X-2.135 Y-50.389 E19.79807
G1 X-1.903 Y-50.398 E19.80966
G1 X-.572 Y-50.43 E19.87608
G1 X-.339 Y-50.432 E19.8877
G1 X0.995 Y-50.422 E19.95426
G1 X1.218 Y-50.417 E19.96539
G1 X2.549 Y-50.367 E20.03184
G1 X2.782 Y-50.354 E20.04348
G1 X4.112 Y-50.262 E20.10999
G1 X4.346 Y-50.242 E20.12171
G1 X5.671 Y-50.108 E20.18815
G1 X5.886 Y-50.083 E20.19895
G1 X7.208 Y-49.91 E20.26547
G1 X7.443 Y-49.876 E20.27732
G1 X8.757 Y-49.661 E20.34374
